X:8
T:Sun Assembly
M:2/4
L:1/8
B:Thompson's Compleat Collection of 200 Favourite Country Dances, vol. 1 (London, 1757)
Z:Transcribed and edited by Fynnian Titford-Mock, 2007
Z:abc's:AK/Fiddler's Companion
K:A
a2 {f}e2|{d}c2 BA|f2A2|G2 FE|(Ac)(ec)|(d^f)(fa)|(ge)(f^d)|e2E2|a2 {f}e2|{d}c2 BA|f2A2|GG2 FE|
(FA)(dF)|(EG)(Bd)|(cB)(AG)|A2 A,2||(ce)(ag)|f2 ed|(ce)(ag)|f2 ed|(ce)(ag)|"tr"(gf)"tr"(fe)|
"tr"ed"tr"dc|"tr"c2B2|(dc)(BA)|(G/A/B) E2|dcBA|(fg/a/) g2|fAaf|ecBA|E2G2|A4||

